web-components-icons/e500-image/SVG/remove-vertical-spacing.svg

<svg xmlns="http://www.w3.org/2000/svg" viewBox="0 0 512 512"><defs><style>.cls-1{fill-rule:evenodd;}</style></defs><title>remove-vertical-spacing</title><g id="remove_vertical_spacing" data-name="remove vertical spacing"><path class="cls-1" d="M192,320v96h96v64H64V416h96V320H0V224H160V128H96V32H256v96H192v96H352v96Zm320,22.63L489.37,320,432,377.37,374.63,320,352,342.63,409.37,400,352,457.37,374.63,480,432,422.63,489.37,480,512,457.37,454.63,400Zm0-288L489.37,32,432,89.37,374.63,32,352,54.63,409.37,112,352,169.37,374.63,192,432,134.63,489.37,192,512,169.37,454.63,112Z"/></g></svg>

<?xml version="1.0" encoding="utf-8"?>
<!-- Generator: Adobe Illustrator 24.2.0, SVG Export Plug-In . SVG Version: 6.00 Build 0)  -->
<svg version="1.1" id="Layer_1" xmlns="http://www.w3.org/2000/svg" xmlns:xlink="http://www.w3.org/1999/xlink" x="0px" y="0px"
	 width="512px" height="512px" viewBox="0 0 512 512" xml:space="preserve">
<path d="M192,320v96h96v64H64v-64h96v-96H0v-96h160v-96H96V32h160v96h-64v96h160v96H192z M512,342.6L489.4,320
	L432,377.4L374.6,320L352,342.6l57.4,57.4L352,457.4l22.6,22.6l57.4-57.4l57.4,57.4l22.6-22.6L454.6,400L512,342.6z M512,54.6
	L489.4,32L432,89.4L374.6,32L352,54.6l57.4,57.4L352,169.4l22.6,22.6l57.4-57.4l57.4,57.4l22.6-22.6L454.6,112L512,54.6z"/>
</svg>
